X: 25939
T: Maurice O'Connor
R: jig
M: 6/8
K: Dmajor
|:d2A def|ed/c/B/A/ d2A|Bc/d/B AFD|GEE G2A|
FEF DFd|c2d efg|af/g/a/f/ ge/f/g/e/|c3 A3:|
|:dDd dFd|c2B A2G|FAf FAf|g2f e2A|
af/g/a/f/ geg/e/|df/g/a/f/ ecA|Bgf ed/c/B/A/|d3 d3:|

